!!!COM: Music21
!!!OTL: O Migueliño
!!!OMV: pezas_foliadas_o-miguelino_o-miguelino-partitura.musicxml
**kern
*I"Bagpipes
*I'Bag
*clefG^2
*k[]
*M3/4
=1
!LO:TX:a:t=Presto
*MM200
!LO:TX:a:t=[quarter]=200
4r
8cccL
8bbJ
8aaL
8ggJ
=||
8aaL
8ggJ
8eeL
8ggJ
8eeL
8ggJ
=
8aaL
8ggJ
8eeL
8ggJ
8eeL
8ggJ
=
8aaL
8bbJ
8aaL
8ggJ
[4ff
=
4ff]
8bbL
8aaJ
8ggL
8ffJ
=
8ggL
8ffJ
8ddL
8ffJ
8ddL
8ffJ
=
8ggL
8ffJ
8ddL
8ffJ
8ddL
8ffJ
!!linebreak:original
=
8ggL
8aaJ
8ggL
8ffJ
[4ee
=
4ee]
8cccL
8bbJ
8aaL
8ggJ
=||
8aaL
8ggJ
8eeL
8ggJ
8eeL
8ggJ
=
8aaL
8ggJ
8eeL
8ggJ
8eeL
8ggJ
=
8aaL
8bbJ
8aaL
8ggJ
[4ff
=
4ff]
8bbL
8aaJ
8ggL
8ffJ
=
8ggL
8ffJ
8ddL
8ffJ
8ddL
8ffJ
=
8ggL
8ffJ
8ddL
8ffJ
8ddL
8ffJ
!!linebreak:original
=||
8ggL
8aaJ
8ggL
8ffJ
[4ee
=
2.ee_
=
2.ee]
=||
4.gg
8gg
4gg
=
4ee
4ff
4gg
=
2aa
4ff
=
4gg
2aa
=
2bb
4gg
!!linebreak:original
=
4aa
2bb
=
4ccc
8bbL
8aaJ
[4gg
=
2.gg]
=||
4.gg
8gg
4gg
=
4ee
4ff
4gg
=
2aa
4ff
=
4gg
2aa
=
2bb
4gg
!!linebreak:original
=
4aa
2bb
=
4ccc
8bbL
8aaJ
[4gg
=
2.gg]
=||
4.aa
8aa
4aa
=
4ccc
4bb
4aa
=
2gg
4ee
=
4gg
2aa
=
2ff
4dd
=
4ff
2gg
=
2ff
[4ee
=
2.ee]
=||
4.aa
8aa
4aa
=
4ccc
4bb
4aa
!!linebreak:original
=
2gg
4ee
=
4gg
2aa
=
2ff
4dd
=
4ff
2gg
=
2ff
[4ee
=
2.ee_
=
2ee]
4ee
=||
4ee
4ee
4ff
!!linebreak:original
=
2gg
4ee
=
4ee
4ff
4gg
=
2aa
4aa
=
4aa
4ccc
4bb
=
4gg
4ee
4gg
=
4ff
4aa
4gg
=
2ee
4ee
=
4ee
4ee
4ff
=
2gg
4ee
=
4ee
4ff
4gg
=
[2.aa
=
2.aa_
=
4aa]
4r
4aa
=
4aa
4ccc
4bb
!!linebreak:original
=
4gg
4ee
4gg
=
4ff
4aa
4gg
=
[2.ee
=
4ee]
8cccL
8bbJ
8aaL
8ggJ
=||
8ggL
8aaJ
8ggL
8ffJ
[4ee
=
2.ee_
=
8ee]
8r
2r
==
*-
